packages/kaspersky-hexa-ui-icons/src/iconsSVGs/48/Notification.svg

<svg xmlns="http://www.w3.org/2000/svg" width="48" height="48" fill="none" viewBox="0 0 48 48"><path fill="currentColor" fill-rule="evenodd" d="M0 1v38h17.5l6.5 8.66L30.5 39H48V1zm46 36H29.5L24 44.33 18.5 37H2V3h44zM25 24h-2V10h2zm0 6h-2v-2h2z" clip-rule="evenodd"/></svg>

<svg width="48" height="48" viewBox="0 0 48 48" fill="none" xmlns="http://www.w3.org/2000/svg">
<path fill-rule="evenodd" clip-rule="evenodd" d="M0 1V39H17.5L24 47.66L30.5 39H48V1H0ZM46 37H29.5L24 44.33L18.5 37H2V3H46V37ZM25 24H23V10H25V24ZM25 30H23V28H25V30Z"  fill="currentColor"/>
</svg>
